X:1
T: Miss Hamilton of Bangower
C:
R:Strathspey
Q: 128
K:F
M:4/4
L:1/16
|:AB|c3d c2A2 c3d c2A2|Ac3 f3A G4 G2AB|c3d c2A2 c2d2 f2a2|fd3 c3A F4 F2AB|
c3d c2A2 c3d c2A2|Ac3 f3A G4 G2AB|c3d c2A2 c2d2 f2a2|fd3 c3A F4 F2B2|
Ac3 fa3 f3a f2c2|df3 c3A G4 G2B2|Ac3 fa3 f3a f2c2|df3 c3A F4 F2cB|
Ac3 f2a2 Ac3 f2a2|c4 fga2 g2G2 G2AB|c3d c2d2 f3g a3g|f3d c2A2 F4 F2:|
